Papirus/64x64/apps/mpdevil.svg

<?xml version="1.0" encoding="UTF-8" standalone="no"?>
<svg
   id="_图层_1"
   version="1.1"
   viewBox="0 0 64 64" width="64" height="64"
   sodipodi:docname="mpdevil.svg"
   xml:space="preserve"
   inkscape:version="1.4 (e7c3feb100, 2024-10-09)"
   xmlns:inkscape="http://www.inkscape.org/namespaces/inkscape"
   xmlns:sodipodi="http://sodipodi.sourceforge.net/DTD/sodipodi-0.dtd"
   xmlns="http://www.w3.org/2000/svg"
   xmlns:svg="http://www.w3.org/2000/svg"><sodipodi:namedview
     id="namedview26"
     pagecolor="#505050"
     bordercolor="#eeeeee"
     borderopacity="1"
     inkscape:showpageshadow="0"
     inkscape:pageopacity="0"
     inkscape:pagecheckerboard="0"
     inkscape:deskcolor="#505050"
     inkscape:zoom="8.453125"
     inkscape:cx="32"
     inkscape:cy="33.892791"
     inkscape:window-width="1421"
     inkscape:window-height="796"
     inkscape:window-x="751"
     inkscape:window-y="88"
     inkscape:window-maximized="0"
     inkscape:current-layer="_图层_1" /><!-- Generator: Adobe Illustrator 29.0.1, SVG Export Plug-In . SVG Version: 2.1.0 Build 192)  --><defs
     id="defs6"><style
       id="style1">
      .st0 {
        fill-opacity: .5;
      }

      .st0, .st1, .st2, .st3, .st4, .st5, .st6, .st7 {
        fill: #fff;
      }

      .st8 {
        fill: #133c9a;
      }

      .st2, .st9 {
        display: none;
      }

      .st3 {
        fill-opacity: .2;
      }

      .st4 {
        fill-opacity: .9;
      }

      .st10 {
        fill: #3370ff;
      }

      .st11 {
        fill: url(#_未命名的渐变_3);
      }

      .st12 {
        fill: url(#_未命名的渐变);
      }

      .st5 {
        fill-opacity: .3;
      }

      .st6 {
        fill-opacity: 0;
      }

      .st7 {
        fill-opacity: .7;
      }

      .st13 {
        fill: #00d6b9;
      }

      .st14 {
        fill: url(#_未命名的渐变_2);
      }
    </style><radialGradient
       id="_未命名的渐变"
       data-name="未命名的渐变"
       cx="123.9"
       cy="-40.2"
       fx="123.9"
       fy="-40.2"
       r="59.4"
       gradientTransform="translate(-26.8 25.5) scale(.6 -.7)"
       gradientUnits="userSpaceOnUse"><stop
         offset="0"
         stop-color="#db202e"
         id="stop1" /><stop
         offset="1"
         stop-color="#e01b24"
         id="stop2" /></radialGradient><radialGradient
       id="_未命名的渐变_2"
       data-name="未命名的渐变 2"
       cx="67.6"
       cy="26.8"
       fx="67.6"
       fy="26.8"
       r="105.2"
       gradientTransform="translate(-26.6 25.3) scale(.6 -.7)"
       gradientUnits="userSpaceOnUse"><stop
         offset="0"
         stop-color="#ffb648"
         id="stop3" /><stop
         offset="1"
         stop-color="#ff7800"
         stop-opacity="0"
         id="stop4" /></radialGradient><radialGradient
       id="_未命名的渐变_3"
       data-name="未命名的渐变 3"
       cx="61.7"
       cy="18.6"
       fx="61.7"
       fy="18.6"
       r="68"
       gradientTransform="translate(-26.8 25.8) scale(.6 -.7)"
       gradientUnits="userSpaceOnUse"><stop
         offset="0"
         stop-color="#c64600"
         id="stop5" /><stop
         offset="1"
         stop-color="#a51d2d"
         id="stop6" /></radialGradient></defs><path
     class="st1"
     d="M47.5,64.1H13.8c-7.6,0-13.8-6.3-13.8-13.8V13.7C0,6.2,6.2,0,13.7,0h36.6c7.5,0,13.7,6.2,13.7,13.7v36.6c0,7.5-6.2,13.7-13.7,13.7h-2.9.1Z"
     id="path6"
     style="fill:#f2f2f2;fill-opacity:1" /><g
     id="g38"
     transform="matrix(0.85518545,0,0,0.84156419,5.9945074,4.1092083)"><path
       style="opacity:0.2"
       d="M 31.974685,6.0000001 C 16.626627,6.0285423 4.1717522,18.736473 4.1717778,34.478 H 8.399959 C 8.3995658,20.570688 18.346659,10.105864 31.905705,10 c 0.06294,-2.47e-4 0.12586,-2.47e-4 0.1888,0 13.63248,-10e-7 23.505454,10.495772 23.505454,24.478 h 4.22381 c 0,-15.761714 -12.43048,-28.4779999 -27.798248,-28.4779999 h -0.05028 z"
       id="path1" /><circle
       style="opacity:0.2"
       cx="39.509998"
       cy="30.115"
       r="22"
       transform="rotate(12.584)"
       id="circle1" /><path
       style="fill:#3d3846"
       d="M 31.974685,5.0000001 C 16.626627,5.0285423 4.1717522,17.736473 4.1717778,33.478 H 8.399959 c -3.932e-4,-13.907311 9.9467,-24.3721363 23.505746,-24.4779999 0.06294,-2.466e-4 0.12586,-2.466e-4 0.1888,0 13.63248,-8e-7 23.505454,10.4957729 23.505454,24.4779999 h 4.22381 c 0,-15.761714 -12.43048,-28.4779999 -27.798248,-28.4779999 h -0.05028 z"
       id="path2" /><path
       style="opacity:0.1;fill:#ffffff"
       d="M 31.976562,5 C 16.628504,5.0285422 4.1718494,17.735036 4.171875,33.476562 H 4.197266 C 4.7124617,18.20126 16.955495,6.0279341 31.976562,6 h 0.05078 c 15.040793,0 27.258041,12.181385 27.771484,27.476562 h 0.02539 C 59.824217,17.714849 47.395112,5 32.027344,5 Z"
       id="path3" /><path
       style="fill:#c01c28"
       d="m 12.222732,3.9993041 c 0,0 -4.819672,10.6173189 4.678401,22.2928819 l 10.209812,-4.8021 C 13.282249,15.587934 12.222732,4.0006959 12.222732,4.0006959 Z"
       id="path4" /><path
       style="fill:#c01c28"
       d="m 51.734173,3.9993041 c 0,0 4.819672,10.6173189 -4.678402,22.2928819 l -10.209812,-4.8021 C 50.674655,15.587934 51.734173,4.0006959 51.734173,4.0006959 Z"
       id="path5-9" /><path
       style="opacity:0.1;fill:#ffffff"
       d="m 12.222656,4 c 0,0 -1.229416,2.7994321 -1.193359,7.064453 C 11.168457,7.3615323 12.222656,5 12.222656,5 c 0,0 1.006246,10.969469 13.804688,16.998047 l 1.082031,-0.509766 C 13.280677,15.586127 12.222656,4 12.222656,4 Z m 39.511719,0 c 0,0 -1.058023,11.586127 -14.886719,17.488281 l 1.082032,0.509766 C 50.728128,15.969469 51.734375,5 51.734375,5 c 0,0 1.0542,2.3615323 1.193359,6.064453 C 52.963791,6.7994321 51.734375,4 51.734375,4 Z"
       id="path6-7" /><circle
       style="fill:#e8303a"
       cx="39.292"
       cy="29.139"
       r="22"
       transform="rotate(12.584)"
       id="circle6" /><path
       style="opacity:0.1;fill:#ffffff"
       d="M 32.431641,15.001953 A 22,22 0 0 0 30.875,15.027343 22,22 0 0 0 10.527344,32.20703 22,22 0 0 0 10.021484,37.410155 22,22 0 0 1 10.527344,33.20703 22,22 0 0 1 30.875,16.027343 a 22,22 0 0 1 5.917969,0.5 22,22 0 0 1 17.167969,21.240234 22,22 0 0 1 0.01172,0.105469 22,22 0 0 0 -17.179687,-22.345703 22,22 0 0 0 -4.361328,-0.525391 z"
       id="path7" /><path
       style="opacity:0.2"
       d="m 12.73824,23.999999 c -0.450674,5.54e-4 -1.23317,0.252634 -1.738281,0.445312 0,0 -0.986496,0.461418 -1.2382812,0.523438 -1.2291638,0.30241 -2.6260066,0.13448 -3.75,0.671874 -0.623483,0.298108 -1.1515858,0.790096 -1.5,1.339844 -0.5078996,0.801424 -0.697664,1.459012 -0.84375,2.367188 -0.395793,2.460074 -0.6566288,4.773478 -0.6679688,8.195312 v 0.914064 c 0.01046,3.421838 0.2721758,5.735242 0.6679688,8.195312 0.146124,0.908164 0.3358504,1.565784 0.84375,2.367188 0.3484142,0.549734 0.876517,1.041736 1.5,1.339844 1.1240876,0.537388 2.5209118,0.369464 3.75,0.671874 0.2517852,0.06203 1.2382812,0.539062 1.2382812,0.539062 0.504125,0.190632 1.297119,0.429146 1.738281,0.429688 0.731391,9.16e-4 1.148541,-0.229004 1.511719,-0.78125 0.363174,-0.552246 0.76292,-1.211678 0.75,-3.238282 V 47.332031 28.667967 28.019531 c 0.01275,-2.026658 -0.386826,-2.686072 -0.75,-3.238282 -0.363178,-0.55221 -0.780328,-0.782168 -1.511719,-0.78125 z m 38.523437,0 c -0.73139,-9.18e-4 -1.152446,0.22904 -1.515624,0.78125 -0.363174,0.55221 -0.758848,1.211624 -0.746094,3.238282 v 0.648436 18.664064 0.648436 c -0.013,2.026604 0.38292,2.686036 0.746094,3.238282 0.363178,0.552246 0.784234,0.782166 1.515624,0.78125 0.441162,-5.42e-4 1.234158,-0.239056 1.738282,-0.429688 0,0 0.986496,-0.477036 1.238282,-0.539062 1.229088,-0.30241 2.625912,-0.13448 3.75,-0.671874 0.623482,-0.298106 1.151586,-0.79011 1.5,-1.339844 0.5079,-0.801404 0.693718,-1.459024 0.839842,-2.367188 0.395794,-2.46007 0.661406,-4.773474 0.671876,-8.195312 v -0.914064 c -0.0114,-3.421834 -0.276084,-5.735238 -0.671876,-8.195312 -0.14608,-0.908176 -0.331942,-1.565764 -0.839842,-2.367188 -0.348414,-0.549748 -0.876518,-1.041734 -1.5,-1.339844 -1.123994,-0.537386 -2.520836,-0.369464 -3.75,-0.671874 -0.251786,-0.06202 -1.238282,-0.523438 -1.238282,-0.523438 -0.505112,-0.192678 -1.287608,-0.444758 -1.738282,-0.445312 z"
       id="path8" /><path
       style="fill:#3d3846"
       d="m 52.998569,23.443966 v 27.124548 c 0,0 0.986508,-0.476474 1.238294,-0.5385 1.229088,-0.30241 2.626904,-0.13344 3.750992,-0.670834 0.623482,-0.298106 1.151584,-0.790136 1.499998,-1.33987 0.5079,-0.801404 0.695658,-1.458046 0.841782,-2.36621 0.395792,-2.46007 0.658464,-4.773732 0.668934,-8.19557 V 36.542834 C 60.987169,33.121 60.725427,30.806472 60.329635,28.346398 60.183555,27.438222 59.995753,26.782478 59.487853,25.981054 59.139439,25.431306 58.611337,24.939276 57.987855,24.641168 56.863861,24.10378 55.466027,24.272746 54.236863,23.970336 53.985077,23.908316 52.998569,23.44431 52.998569,23.44431 Z"
       id="path9" /><path
       style="fill:#9a9996"
       d="m 51.261863,23.000284 c -0.73139,-9.18e-4 -1.151712,0.228004 -1.51489,0.780214 -0.363174,0.55221 -0.760852,1.21362 -0.748098,3.240278 l 0.0011,0.646218 h -0.0011 v 18.66629 h 0.0011 l -0.0011,0.64714 c -0.013,2.026604 0.384924,2.688028 0.748098,3.240274 0.363178,0.552246 0.7835,0.780216 1.51489,0.7793 0.441162,-5.42e-4 1.232582,-0.240852 1.736706,-0.431484 V 23.44431 C 52.493457,23.251632 51.712537,23.000554 51.261863,23 Z"
       id="path10" /><circle
       style="opacity:0.4"
       cx="29.5"
       cy="41.5"
       r="1.5"
       id="circle10" /><circle
       style="opacity:0.4"
       cx="34.5"
       cy="41.5"
       r="1.5"
       id="circle11" /><path
       style="opacity:0.2"
       d="m 22.999959,26 a 6,6 0 0 0 -6,6 6,6 0 0 0 6,6 6,6 0 0 0 6,-6 6,6 0 0 0 -6,-6 z m 18,0 a 6,6 0 0 0 -6,6 6,6 0 0 0 6,6 6,6 0 0 0 6,-6 6,6 0 0 0 -6,-6 z"
       id="path11" /><circle
       style="fill:#f6f5f4"
       cx="41"
       cy="31"
       r="6"
       id="circle12" /><circle
       style="fill:#241f31"
       cx="41"
       cy="30"
       r="3"
       id="circle13" /><circle
       style="fill:#f6f5f4"
       cx="23"
       cy="31"
       r="6"
       id="circle14" /><circle
       style="fill:#241f31"
       cx="23"
       cy="30"
       r="3"
       id="circle15" /><path
       style="fill:#3d3846"
       d="m 10.999959,23.443966 v 27.124548 c 0,0 -0.986509,-0.476474 -1.2382946,-0.5385 C 8.5325762,49.727604 7.134761,49.896568 6.0106734,49.35918 5.3871904,49.061074 4.8590884,48.569044 4.5106742,48.01931 4.0027746,47.217906 3.815017,46.561264 3.6688932,45.6531 3.2731002,43.19303 3.0104288,40.879368 2.999959,37.45753 V 36.542834 C 3.011299,33.121 3.2731002,30.806472 3.6688932,28.346398 3.8149792,27.438222 4.0027746,26.782478 4.5106742,25.981054 4.8590884,25.431306 5.3871904,24.939276 6.0106734,24.641168 7.1346668,24.10378 8.5325006,24.272746 9.7616644,23.970336 10.01345,23.908316 10.999959,23.44431 10.999959,23.44431 Z"
       id="path15" /><path
       style="fill:#9a9996"
       d="m 12.736665,23.000284 c 0.731391,-9.18e-4 1.151712,0.228004 1.51489,0.780214 0.363174,0.55221 0.760852,1.21362 0.748098,3.240278 l -0.0011,0.646218 h 0.0011 v 18.66629 h -0.0011 l 0.0011,0.64714 c 0.01292,2.026604 -0.384924,2.688028 -0.748098,3.240274 -0.363178,0.552246 -0.783499,0.780216 -1.51489,0.7793 -0.441162,-5.42e-4 -1.232581,-0.240852 -1.736706,-0.431484 V 23.44431 C 11.50507,23.251632 12.285991,23.000554 12.736665,23 Z"
       id="path16" /><path
       style="opacity:0.4"
       d="m 26.471151,42.84805 c -5.66803,0.0844 -4.28659,2.532972 -5.35208,4.471164 -0.521428,0.94848 0.753286,-0.10848 2.187028,-1.428868 2.254506,3.48511 6.391332,6.78243 13.643942,4.16753 -6.465408,-0.46013 -10.40838,-2.733252 -12.77302,-4.99222 1.187372,-1.127072 2.29413,-2.217552 2.29413,-2.217552 z"
       id="path17" /><path
       style="opacity:0.1;fill:#ffffff"
       d="m 12.738281,23 c -0.450674,5.54e-4 -1.23317,0.252634 -1.738281,0.445312 0,0 -0.986496,0.461418 -1.2382812,0.523438 -1.2291639,0.30241 -2.6260067,0.134481 -3.75,0.671875 -0.6234831,0.29811 -1.1515859,0.790096 -1.5,1.339844 -0.5078997,0.801424 -0.6976641,1.459011 -0.84375,2.367187 C 3.2721758,30.80773 3.01134,33.121135 3,36.542969 v 0.914062 c 4.73e-5,0.01544 -1.438e-4,0.02794 0,0.04297 0.013529,-3.396455 0.2739621,-5.703373 0.6679688,-8.152344 0.1460859,-0.908176 0.3358503,-1.565763 0.84375,-2.367187 0.3484141,-0.549748 0.8765169,-1.041734 1.5,-1.339844 1.1239933,-0.537394 2.5208361,-0.369465 3.75,-0.671875 C 10.013504,24.90673 11,24.445312 11,24.445312 11.505111,24.252634 12.287607,24.000554 12.738281,24 c 0.731391,-9.18e-4 1.148541,0.22904 1.511719,0.78125 0.363174,0.55221 0.76275,1.211623 0.75,3.238281 V 27.667969 27.019531 C 15.01275,24.992873 14.613174,24.33346 14.25,23.78125 13.886822,23.22904 13.469672,22.999082 12.738281,23 Z m 38.523438,0 c -0.73139,-9.18e-4 -1.152447,0.22904 -1.515625,0.78125 C 49.38292,24.33346 48.987246,24.992873 49,27.019531 v 0.648438 0.351562 C 48.98725,25.992873 49.38292,25.33346 49.746094,24.78125 50.109272,24.22904 50.530329,23.999082 51.261719,24 c 0.450674,5.54e-4 1.233169,0.252634 1.738281,0.445312 0,0 0.986413,0.461418 1.238281,0.523438 1.229164,0.30241 2.626006,0.134491 3.75,0.671875 0.623482,0.29811 1.151586,0.790096 1.5,1.339844 0.5079,0.801424 0.693764,1.459011 0.839844,2.367187 0.394087,2.449476 0.658353,4.756691 0.671875,8.154297 1.56e-4,-0.01569 -5e-5,-0.02878 0,-0.04492 v -0.914062 c -0.0114,-3.421834 -0.276083,-5.735239 -0.671875,-8.195313 -0.14608,-0.908176 -0.331944,-1.565763 -0.839844,-2.367187 -0.348414,-0.549748 -0.876518,-1.041734 -1.5,-1.339844 -1.123994,-0.537384 -2.520836,-0.369465 -3.75,-0.671875 C 53.986413,23.90673 53,23.445312 53,23.445312 52.494888,23.252634 51.712393,23.000554 51.261719,23 Z"
       id="path18" /></g></svg>

<svg xmlns="http://www.w3.org/2000/svg" width="64" height="64" version="1.1">
 <path style="opacity:0.2" d="M 31.974685,6.0000001 C 16.626627,6.0285423 4.1717522,18.736473 4.1717778,34.478 H 8.399959 C 8.3995658,20.570688 18.346659,10.105864 31.905705,10 c 0.06294,-2.47e-4 0.12586,-2.47e-4 0.1888,0 13.63248,-10e-7 23.505454,10.495772 23.505454,24.478 h 4.22381 c 0,-15.761714 -12.43048,-28.4779999 -27.798248,-28.4779999 h -0.05028 z"/>
 <circle style="opacity:0.2" cx="39.51" cy="30.115" r="22" transform="rotate(12.584)"/>
 <path style="fill:#3d3846" d="M 31.974685,5.0000001 C 16.626627,5.0285423 4.1717522,17.736473 4.1717778,33.478 H 8.399959 c -3.932e-4,-13.907311 9.9467,-24.3721363 23.505746,-24.4779999 0.06294,-2.466e-4 0.12586,-2.466e-4 0.1888,0 13.63248,-8e-7 23.505454,10.4957729 23.505454,24.4779999 h 4.22381 c 0,-15.761714 -12.43048,-28.4779999 -27.798248,-28.4779999 h -0.05028 z"/>
 <path style="opacity:0.1;fill:#ffffff" d="M 31.976562 5 C 16.628504 5.0285422 4.1718494 17.735036 4.171875 33.476562 L 4.1972656 33.476562 C 4.7124617 18.20126 16.955495 6.0279341 31.976562 6 L 32.027344 6 C 47.068137 6 59.285385 18.181385 59.798828 33.476562 L 59.824219 33.476562 C 59.824217 17.714849 47.395112 5 32.027344 5 L 31.976562 5 z"/>
 <path style="fill:#c01c28" d="m 12.222732,3.9993041 c 0,0 -4.819672,10.6173189 4.678401,22.2928819 l 10.209812,-4.8021 C 13.282249,15.587934 12.222732,4.0006959 12.222732,4.0006959 Z"/>
 <path style="fill:#c01c28" d="m 51.734173,3.9993041 c 0,0 4.819672,10.6173189 -4.678402,22.2928819 l -10.209812,-4.8021 C 50.674655,15.587934 51.734173,4.0006959 51.734173,4.0006959 Z"/>
 <path style="opacity:0.1;fill:#ffffff" d="M 12.222656 4 C 12.222656 4 10.99324 6.7994321 11.029297 11.064453 C 11.168457 7.3615323 12.222656 5 12.222656 5 C 12.222656 5 13.228902 15.969469 26.027344 21.998047 L 27.109375 21.488281 C 13.280677 15.586127 12.222656 4 12.222656 4 z M 51.734375 4 C 51.734375 4 50.676352 15.586127 36.847656 21.488281 L 37.929688 21.998047 C 50.728128 15.969469 51.734375 5 51.734375 5 C 51.734375 5 52.788575 7.3615323 52.927734 11.064453 C 52.963791 6.7994321 51.734375 4 51.734375 4 z"/>
 <circle style="fill:#e8303a" cx="39.292" cy="29.139" r="22" transform="rotate(12.584)"/>
 <path style="opacity:0.1;fill:#ffffff" d="M 32.431641 15.001953 A 22 22 0 0 0 30.875 15.027344 A 22 22 0 0 0 10.527344 32.207031 A 22 22 0 0 0 10.021484 37.410156 A 22 22 0 0 1 10.527344 33.207031 A 22 22 0 0 1 30.875 16.027344 A 22 22 0 0 1 36.792969 16.527344 A 22 22 0 0 1 53.960938 37.767578 A 22 22 0 0 1 53.972656 37.873047 A 22 22 0 0 0 36.792969 15.527344 A 22 22 0 0 0 32.431641 15.001953 z"/>
 <path style="opacity:0.2" d="m 12.73824,23.999999 c -0.450674,5.54e-4 -1.23317,0.252634 -1.738281,0.445312 0,0 -0.986496,0.461418 -1.2382812,0.523438 -1.2291638,0.30241 -2.6260066,0.13448 -3.75,0.671874 -0.623483,0.298108 -1.1515858,0.790096 -1.5,1.339844 -0.5078996,0.801424 -0.697664,1.459012 -0.84375,2.367188 -0.395793,2.460074 -0.6566288,4.773478 -0.6679688,8.195312 v 0.914064 c 0.01046,3.421838 0.2721758,5.735242 0.6679688,8.195312 0.146124,0.908164 0.3358504,1.565784 0.84375,2.367188 0.3484142,0.549734 0.876517,1.041736 1.5,1.339844 1.1240876,0.537388 2.5209118,0.369464 3.75,0.671874 0.2517852,0.06203 1.2382812,0.539062 1.2382812,0.539062 0.504125,0.190632 1.297119,0.429146 1.738281,0.429688 0.731391,9.16e-4 1.148541,-0.229004 1.511719,-0.78125 0.363174,-0.552246 0.76292,-1.211678 0.75,-3.238282 V 47.332031 28.667967 28.019531 c 0.01275,-2.026658 -0.386826,-2.686072 -0.75,-3.238282 -0.363178,-0.55221 -0.780328,-0.782168 -1.511719,-0.78125 z m 38.523437,0 c -0.73139,-9.18e-4 -1.152446,0.22904 -1.515624,0.78125 -0.363174,0.55221 -0.758848,1.211624 -0.746094,3.238282 v 0.648436 18.664064 0.648436 c -0.013,2.026604 0.38292,2.686036 0.746094,3.238282 0.363178,0.552246 0.784234,0.782166 1.515624,0.78125 0.441162,-5.42e-4 1.234158,-0.239056 1.738282,-0.429688 0,0 0.986496,-0.477036 1.238282,-0.539062 1.229088,-0.30241 2.625912,-0.13448 3.75,-0.671874 0.623482,-0.298106 1.151586,-0.79011 1.5,-1.339844 0.5079,-0.801404 0.693718,-1.459024 0.839842,-2.367188 0.395794,-2.46007 0.661406,-4.773474 0.671876,-8.195312 v -0.914064 c -0.0114,-3.421834 -0.276084,-5.735238 -0.671876,-8.195312 -0.14608,-0.908176 -0.331942,-1.565764 -0.839842,-2.367188 -0.348414,-0.549748 -0.876518,-1.041734 -1.5,-1.339844 -1.123994,-0.537386 -2.520836,-0.369464 -3.75,-0.671874 -0.251786,-0.06202 -1.238282,-0.523438 -1.238282,-0.523438 -0.505112,-0.192678 -1.287608,-0.444758 -1.738282,-0.445312 z"/>
 <path style="fill:#3d3846" d="m 52.998569,23.443966 v 27.124548 c 0,0 0.986508,-0.476474 1.238294,-0.5385 1.229088,-0.30241 2.626904,-0.13344 3.750992,-0.670834 0.623482,-0.298106 1.151584,-0.790136 1.499998,-1.33987 0.5079,-0.801404 0.695658,-1.458046 0.841782,-2.36621 0.395792,-2.46007 0.658464,-4.773732 0.668934,-8.19557 V 36.542834 C 60.987169,33.121 60.725427,30.806472 60.329635,28.346398 60.183555,27.438222 59.995753,26.782478 59.487853,25.981054 59.139439,25.431306 58.611337,24.939276 57.987855,24.641168 56.863861,24.10378 55.466027,24.272746 54.236863,23.970336 53.985077,23.908316 52.998569,23.44431 52.998569,23.44431 Z"/>
 <path style="fill:#9a9996" d="m 51.261863,23.000284 c -0.73139,-9.18e-4 -1.151712,0.228004 -1.51489,0.780214 -0.363174,0.55221 -0.760852,1.21362 -0.748098,3.240278 l 0.0011,0.646218 h -0.0011 v 18.66629 h 0.0011 l -0.0011,0.64714 c -0.013,2.026604 0.384924,2.688028 0.748098,3.240274 0.363178,0.552246 0.7835,0.780216 1.51489,0.7793 0.441162,-5.42e-4 1.232582,-0.240852 1.736706,-0.431484 V 23.44431 C 52.493457,23.251632 51.712537,23.000554 51.261863,23 Z"/>
 <circle style="opacity:0.4" cx="29.5" cy="41.5" r="1.5"/>
 <circle style="opacity:0.4" cx="34.5" cy="41.5" r="1.5"/>
 <path style="opacity:0.2" d="m 22.999959,26 a 6,6 0 0 0 -6,6 6,6 0 0 0 6,6 6,6 0 0 0 6,-6 6,6 0 0 0 -6,-6 z m 18,0 a 6,6 0 0 0 -6,6 6,6 0 0 0 6,6 6,6 0 0 0 6,-6 6,6 0 0 0 -6,-6 z"/>
 <circle style="fill:#f6f5f4" cx="41" cy="31" r="6"/>
 <circle style="fill:#241f31" cx="41" cy="30" r="3"/>
 <circle style="fill:#f6f5f4" cx="23" cy="31" r="6"/>
 <circle style="fill:#241f31" cx="23" cy="30" r="3"/>
 <path style="fill:#3d3846" d="m 10.999959,23.443966 v 27.124548 c 0,0 -0.986509,-0.476474 -1.2382946,-0.5385 C 8.5325762,49.727604 7.134761,49.896568 6.0106734,49.35918 5.3871904,49.061074 4.8590884,48.569044 4.5106742,48.01931 4.0027746,47.217906 3.815017,46.561264 3.6688932,45.6531 3.2731002,43.19303 3.0104288,40.879368 2.999959,37.45753 V 36.542834 C 3.011299,33.121 3.2731002,30.806472 3.6688932,28.346398 3.8149792,27.438222 4.0027746,26.782478 4.5106742,25.981054 4.8590884,25.431306 5.3871904,24.939276 6.0106734,24.641168 7.1346668,24.10378 8.5325006,24.272746 9.7616644,23.970336 10.01345,23.908316 10.999959,23.44431 10.999959,23.44431 Z"/>
 <path style="fill:#9a9996" d="m 12.736665,23.000284 c 0.731391,-9.18e-4 1.151712,0.228004 1.51489,0.780214 0.363174,0.55221 0.760852,1.21362 0.748098,3.240278 l -0.0011,0.646218 h 0.0011 v 18.66629 h -0.0011 l 0.0011,0.64714 c 0.01292,2.026604 -0.384924,2.688028 -0.748098,3.240274 -0.363178,0.552246 -0.783499,0.780216 -1.51489,0.7793 -0.441162,-5.42e-4 -1.232581,-0.240852 -1.736706,-0.431484 V 23.44431 C 11.50507,23.251632 12.285991,23.000554 12.736665,23 Z"/>
 <path style="opacity:0.4" d="m 26.471151,42.84805 c -5.66803,0.0844 -4.28659,2.532972 -5.35208,4.471164 -0.521428,0.94848 0.753286,-0.10848 2.187028,-1.428868 2.254506,3.48511 6.391332,6.78243 13.643942,4.16753 -6.465408,-0.46013 -10.40838,-2.733252 -12.77302,-4.99222 1.187372,-1.127072 2.29413,-2.217552 2.29413,-2.217552 z"/>
 <path style="opacity:0.1;fill:#ffffff" d="M 12.738281 23 C 12.287607 23.000554 11.505111 23.252634 11 23.445312 C 11 23.445312 10.013504 23.90673 9.7617188 23.96875 C 8.5325549 24.27116 7.1357121 24.103231 6.0117188 24.640625 C 5.3882357 24.938735 4.8601329 25.430721 4.5117188 25.980469 C 4.0038191 26.781893 3.8140547 27.43948 3.6679688 28.347656 C 3.2721758 30.80773 3.01134 33.121135 3 36.542969 L 3 37.457031 C 3.0000473 37.472475 2.9998562 37.484972 3 37.5 C 3.0135285 34.103545 3.2739621 31.796627 3.6679688 29.347656 C 3.8140547 28.43948 4.0038191 27.781893 4.5117188 26.980469 C 4.8601329 26.430721 5.3882357 25.938735 6.0117188 25.640625 C 7.1357121 25.103231 8.5325549 25.27116 9.7617188 24.96875 C 10.013504 24.90673 11 24.445312 11 24.445312 C 11.505111 24.252634 12.287607 24.000554 12.738281 24 C 13.469672 23.999082 13.886822 24.22904 14.25 24.78125 C 14.613174 25.33346 15.01275 25.992873 15 28.019531 L 15 27.667969 L 15 27.019531 C 15.01275 24.992873 14.613174 24.33346 14.25 23.78125 C 13.886822 23.22904 13.469672 22.999082 12.738281 23 z M 51.261719 23 C 50.530329 22.999082 50.109272 23.22904 49.746094 23.78125 C 49.38292 24.33346 48.987246 24.992873 49 27.019531 L 49 27.667969 L 49 28.019531 C 48.987246 25.992873 49.38292 25.33346 49.746094 24.78125 C 50.109272 24.22904 50.530329 23.999082 51.261719 24 C 51.712393 24.000554 52.494888 24.252634 53 24.445312 C 53 24.445312 53.986413 24.90673 54.238281 24.96875 C 55.467445 25.27116 56.864287 25.103241 57.988281 25.640625 C 58.611763 25.938735 59.139867 26.430721 59.488281 26.980469 C 59.996181 27.781893 60.182045 28.43948 60.328125 29.347656 C 60.722212 31.797132 60.986478 34.104347 61 37.501953 C 61.000156 37.48626 60.99995 37.473177 61 37.457031 L 61 36.542969 C 60.9886 33.121135 60.723917 30.80773 60.328125 28.347656 C 60.182045 27.43948 59.996181 26.781893 59.488281 25.980469 C 59.139867 25.430721 58.611763 24.938735 57.988281 24.640625 C 56.864287 24.103241 55.467445 24.27116 54.238281 23.96875 C 53.986413 23.90673 53 23.445312 53 23.445312 C 52.494888 23.252634 51.712393 23.000554 51.261719 23 z"/>
</svg>
